public/assets/icons/grid.svg

<svg xmlns="http://www.w3.org/2000/svg" viewBox="-2 -2 24 24" width="24" height="24" preserveAspectRatio="xMinYMin" class="jam jam-grid"><path d='M2 2v4h4V2H2zm0-2h4a2 2 0 0 1 2 2v4a2 2 0 0 1-2 2H2a2 2 0 0 1-2-2V2a2 2 0 0 1 2-2zm12 0h4a2 2 0 0 1 2 2v4a2 2 0 0 1-2 2h-4a2 2 0 0 1-2-2V2a2 2 0 0 1 2-2zm0 2v4h4V2h-4zm0 10h4a2 2 0 0 1 2 2v4a2 2 0 0 1-2 2h-4a2 2 0 0 1-2-2v-4a2 2 0 0 1 2-2zm0 2v4h4v-4h-4zM2 12h4a2 2 0 0 1 2 2v4a2 2 0 0 1-2 2H2a2 2 0 0 1-2-2v-4a2 2 0 0 1 2-2zm0 2v4h4v-4H2z'/></svg>

<svg xmlns="http://www.w3.org/2000/svg" width="20" height="20" viewBox="0 0 20 20">
  <path id="grid" d="M2,2V6H6V2ZM2,0H6A2,2,0,0,1,8,2V6A2,2,0,0,1,6,8H2A2,2,0,0,1,0,6V2A2,2,0,0,1,2,0ZM14,0h4a2,2,0,0,1,2,2V6a2,2,0,0,1-2,2H14a2,2,0,0,1-2-2V2A2,2,0,0,1,14,0Zm0,2V6h4V2Zm0,10h4a2,2,0,0,1,2,2v4a2,2,0,0,1-2,2H14a2,2,0,0,1-2-2V14A2,2,0,0,1,14,12Zm0,2v4h4V14ZM2,12H6a2,2,0,0,1,2,2v4a2,2,0,0,1-2,2H2a2,2,0,0,1-2-2V14a2,2,0,0,1,2-2Zm0,2v4H6V14Z" fill="#f2f2f2"/>
</svg>
